X:79
T:Le comte Ory
R:Chanson
O:France
B:Le livre des Chansons (Henri Davenson) n°79
Z:<anamnese@caramail.com> -- http://anamnese.fr.st
M:2/4
L:1/8
Q:1/4=130
K:G
d2 B>c | d3 d | e>e d>c | d>c B>A |\
M:3/4
G2 D2 GG |
M:2/4
A>B c>A | G3 ||: B/4 B>A | G2d2 |\
M:3/4
G>G A>B c>A | G6 :||
W:Le comte Ory disait pour s'égayer
W:Qu'il voulait prendre le couvent de Farmontier
W:Pour plaire aux nonne et pour les désennuyer. /.../


